packages/icons/src/dimensions.svg

<svg width="15" height="15" viewBox="0 0 15 15" fill="none" xmlns="http://www.w3.org/2000/svg">
  <path
    fill-rule="evenodd"
    clip-rule="evenodd"
    d="M3.00014 2.73895C3.00014 2.94698 2.76087 3.06401 2.59666 2.93628L1.00386 1.69744C0.875177 1.59735 0.875177 1.40286 1.00386 1.30277L2.59666 0.063928C2.76087 -0.0637944 3.00014 0.0532293 3.00014 0.261266V1.00012H9.00009V0.261296C9.00009 0.0532591 9.23936 -0.0637646 9.40358 0.0639578L10.9964 1.3028C11.1251 1.40289 11.1251 1.59738 10.9964 1.69747L9.40358 2.93631C9.23936 3.06404 9.00009 2.94701 9.00009 2.73898V2.00012H3.00014V2.73895ZM9.50002 4.99998H2.50002C2.22388 4.99998 2.00002 5.22384 2.00002 5.49998V12.5C2.00002 12.7761 2.22388 13 2.50002 13H9.50002C9.77616 13 10 12.7761 10 12.5V5.49998C10 5.22384 9.77616 4.99998 9.50002 4.99998ZM2.50002 3.99998C1.67159 3.99998 1.00002 4.67156 1.00002 5.49998V12.5C1.00002 13.3284 1.67159 14 2.50002 14H9.50002C10.3284 14 11 13.3284 11 12.5V5.49998C11 4.67156 10.3284 3.99998 9.50002 3.99998H2.50002ZM14.7389 6.00001H14V12H14.7389C14.9469 12 15.064 12.2393 14.9362 12.4035L13.6974 13.9963C13.5973 14.125 13.4028 14.125 13.3027 13.9963L12.0639 12.4035C11.9362 12.2393 12.0532 12 12.2612 12H13V6.00001H12.2612C12.0532 6.00001 11.9361 5.76074 12.0639 5.59653L13.3027 4.00373C13.4028 3.87505 13.5973 3.87505 13.6974 4.00374L14.9362 5.59653C15.0639 5.76074 14.9469 6.00001 14.7389 6.00001Z"
    fill="currentColor"
  />
</svg>

<svg xmlns="http://www.w3.org/2000/svg" width="15" height="15" fill="none"><path fill="currentColor" fill-rule="evenodd" d="M3 2.739a.25.25 0 0 1-.403.197L1.004 1.697a.25.25 0 0 1 0-.394L2.597.063A.25.25 0 0 1 3 .262v.74h6V.26a.25.25 0 0 1 .404-.197l1.592 1.239a.25.25 0 0 1 0 .394l-1.592 1.24A.25.25 0 0 1 9 2.738V2H3zM9.5 5h-7a.5.5 0 0 0-.5.5v7a.5.5 0 0 0 .5.5h7a.5.5 0 0 0 .5-.5v-7a.5.5 0 0 0-.5-.5m-7-1A1.5 1.5 0 0 0 1 5.5v7A1.5 1.5 0 0 0 2.5 14h7a1.5 1.5 0 0 0 1.5-1.5v-7A1.5 1.5 0 0 0 9.5 4zm12.239 2H14v6h.739a.25.25 0 0 1 .197.403l-1.239 1.593a.25.25 0 0 1-.394 0l-1.24-1.593a.25.25 0 0 1 .198-.403H13V6h-.739a.25.25 0 0 1-.197-.403l1.239-1.593a.25.25 0 0 1 .394 0l1.24 1.593a.25.25 0 0 1-.198.403" clip-rule="evenodd"/></svg>
